images/aSNX.svg

<svg height="250" viewBox="0 0 250 250" width="250" xmlns="http://www.w3.org/2000/svg" xmlns:xlink="http://www.w3.org/1999/xlink"><linearGradient id="a" gradientUnits="userSpaceOnUse" x1="210.75" x2="51.5" y1="33.75" y2="221.5"><stop offset="0" stop-color="#b6509e"/><stop offset="1" stop-color="#2ebac6"/></linearGradient><linearGradient id="b" gradientUnits="userSpaceOnUse" x1="125" x2="125" y1="29.296875" y2="220.703125"><stop offset="0" stop-color="#090220"/><stop offset="1" stop-color="#170659"/></linearGradient><path d="m250 125c0 69.035156-55.964844 125-125 125s-125-55.964844-125-125 55.964844-125 125-125 125 55.964844 125 125zm0 0" fill="#fff"/><path d="m125 250c-8.460938.003906-16.902344-.847656-25.195312-2.539062-15.988282-3.273438-31.175782-9.667969-44.699219-18.808594-20.09375-13.566406-35.828125-32.671875-45.285157-54.996094-3.195312-7.5625-5.632812-15.417969-7.28125-23.460938-3.386718-16.625-3.386718-33.761718 0-50.382812 3.273438-15.988281 9.664063-31.179688 18.808594-44.699219 13.566406-20.097656 32.671875-35.828125 54.996094-45.289062 7.5625-3.199219 15.417969-5.636719 23.460938-7.285157 16.625-3.386718 33.761718-3.386718 50.382812 0 15.988281 3.273438 31.179688 9.664063 44.699219 18.808594 20.097656 13.566406 35.828125 32.671875 45.289062 54.996094 3.195313 7.5625 5.636719 15.417969 7.285157 23.460938 3.386718 16.625 3.386718 33.761718 0 50.382812-3.273438 15.992188-9.664063 31.179688-18.808594 44.699219-13.566406 20.09375-32.671875 35.828125-54.996094 45.285156-7.5625 3.199219-15.417969 5.640625-23.460938 7.289063-8.292968 1.691406-16.734374 2.542968-25.195312 2.539062zm0-236.609375c-7.554688 0-15.089844.757813-22.492188 2.269531-14.277343 2.921875-27.839843 8.628906-39.910156 16.792969-17.941406 12.113281-31.984375 29.171875-40.429687 49.105469-2.855469 6.75-5.03125 13.769531-6.503907 20.949218-3.023437 14.839844-3.023437 30.140626 0 44.984376 2.925782 14.277343 8.632813 27.835937 16.796876 39.90625 12.113281 17.945312 29.171874 31.992187 49.105468 40.4375 6.75 2.855468 13.769532 5.03125 20.949219 6.503906 14.84375 3.023437 30.144531 3.023437 44.984375 0 14.277344-2.925782 27.839844-8.632813 39.910156-16.796875 17.9375-12.113281 31.976563-29.171875 40.421875-49.101563 2.855469-6.75 5.03125-13.769531 6.503907-20.949218 3.023437-14.84375 3.023437-30.144532 0-44.984376-2.925782-14.277343-8.632813-27.835937-16.796876-39.90625-12.113281-17.941406-29.167968-31.988281-49.097656-40.433593-6.75-2.855469-13.769531-5.03125-20.949218-6.503907-7.402344-1.511718-14.9375-2.273437-22.492188-2.273437zm0 0" fill="url(#a)"/><path d="m220.703125 125c0 52.855469-42.847656 95.703125-95.703125 95.703125s-95.703125-42.847656-95.703125-95.703125 42.847656-95.703125 95.703125-95.703125 95.703125 42.847656 95.703125 95.703125zm0 0" fill="url(#b)"/><path d="m93.472656 101.207031c-.777344-.941406-1.9375-1.480469-3.15625-1.464843h-25.5625c-.207031.007812-.40625-.070313-.550781-.21875-.132813-.121094-.210937-.292969-.214844-.472657v-17.226562c.003907-.179688.082031-.351563.214844-.472657.144531-.144531.34375-.222656.550781-.214843h27.011719c6.816406 0 12.695313 2.785156 17.640625 8.355469l6.5625 8.007812-12.78125 15.589844zm47.207032-11.800781c4.941406-5.515625 10.851562-8.269531 17.722656-8.269531h26.929687c.183594-.015625.367188.046875.507813.171875.125.140625.183594.328125.171875.515625v17.226562c0 .171875-.0625.339844-.171875.472657-.125.148437-.316406.230468-.507813.21875h-25.566406c-1.21875-.015626-2.378906.523437-3.152344 1.464843l-18.832031 22.910157 18.917969 23.082031c.773437.882812 1.894531 1.386719 3.066406 1.378906h25.5625c.195313-.011719.386719.066406.511719.214844.117187.164062.179687.359375.171875.558593v17.226563c-.003907.171875-.0625.339844-.171875.472656-.125.148438-.316406.230469-.511719.21875h-26.925781c-6.871094 0-12.753906-2.785156-17.636719-8.355469l-15.679687-19.121093-15.679688 19.121093c-4.941406 5.570313-10.851562 8.355469-17.722656 8.355469h-26.929688c-.195312.011719-.382812-.066406-.511718-.21875-.117188-.160156-.179688-.359375-.167969-.558593v-17.226563c0-.175781.058593-.339844.167969-.472656.128906-.152344.316406-.230469.511718-.21875h25.5625c1.214844-.007813 2.363282-.542969 3.15625-1.464844l18.488282-22.566406zm0 0" fill="#00d1ff"/></svg>

<svg xmlns="http://www.w3.org/2000/svg" xmlns:xlink="http://www.w3.org/1999/xlink" width="250px" height="250px" viewBox="0 0 250 250" version="1.1">
<defs>
<linearGradient id="linear0" gradientUnits="userSpaceOnUse" x1="0.843" y1="0.135" x2="0.206" y2="0.886" gradientTransform="matrix(250,0,0,250,0,0)">
<stop offset="0" style="stop-color:rgb(71.372551%,31.37255%,61.960787%);stop-opacity:1;"/>
<stop offset="1" style="stop-color:rgb(18.039216%,72.941178%,77.64706%);stop-opacity:1;"/>
</linearGradient>
<linearGradient id="linear1" gradientUnits="userSpaceOnUse" x1="0.5" y1="0" x2="0.5" y2="1" gradientTransform="matrix(191.40625,0,0,191.40625,29.296875,29.296875)">
<stop offset="0" style="stop-color:rgb(3.529412%,0.784314%,12.54902%);stop-opacity:1;"/>
<stop offset="1" style="stop-color:rgb(9.019608%,2.352941%,34.901962%);stop-opacity:1;"/>
</linearGradient>
</defs>
<g id="surface1">
<path style=" stroke:none;fill-rule:nonzero;fill:rgb(100%,100%,100%);fill-opacity:1;" d="M 250 125 C 250 194.035156 194.035156 250 125 250 C 55.964844 250 0 194.035156 0 125 C 0 55.964844 55.964844 0 125 0 C 194.035156 0 250 55.964844 250 125 Z M 250 125 "/>
<path style=" stroke:none;fill-rule:nonzero;fill:url(#linear0);" d="M 125 250 C 116.539062 250.003906 108.097656 249.152344 99.804688 247.460938 C 83.816406 244.1875 68.628906 237.792969 55.105469 228.652344 C 35.011719 215.085938 19.277344 195.980469 9.820312 173.65625 C 6.625 166.09375 4.1875 158.238281 2.539062 150.195312 C -0.847656 133.570312 -0.847656 116.433594 2.539062 99.8125 C 5.8125 83.824219 12.203125 68.632812 21.347656 55.113281 C 34.914062 35.015625 54.019531 19.285156 76.34375 9.824219 C 83.90625 6.625 91.761719 4.1875 99.804688 2.539062 C 116.429688 -0.847656 133.566406 -0.847656 150.1875 2.539062 C 166.175781 5.8125 181.367188 12.203125 194.886719 21.347656 C 214.984375 34.914062 230.714844 54.019531 240.175781 76.34375 C 243.371094 83.90625 245.8125 91.761719 247.460938 99.804688 C 250.847656 116.429688 250.847656 133.566406 247.460938 150.1875 C 244.1875 166.179688 237.796875 181.367188 228.652344 194.886719 C 215.085938 214.980469 195.980469 230.714844 173.65625 240.171875 C 166.09375 243.371094 158.238281 245.8125 150.195312 247.460938 C 141.902344 249.152344 133.460938 250.003906 125 250 Z M 125 13.390625 C 117.445312 13.390625 109.910156 14.148438 102.507812 15.660156 C 88.230469 18.582031 74.667969 24.289062 62.597656 32.453125 C 44.65625 44.566406 30.613281 61.625 22.167969 81.558594 C 19.3125 88.308594 17.136719 95.328125 15.664062 102.507812 C 12.640625 117.347656 12.640625 132.648438 15.664062 147.492188 C 18.589844 161.769531 24.296875 175.328125 32.460938 187.398438 C 44.574219 205.34375 61.632812 219.390625 81.566406 227.835938 C 88.316406 230.691406 95.335938 232.867188 102.515625 234.339844 C 117.359375 237.363281 132.660156 237.363281 147.5 234.339844 C 161.777344 231.414062 175.339844 225.707031 187.410156 217.542969 C 205.347656 205.429688 219.386719 188.371094 227.832031 168.441406 C 230.6875 161.691406 232.863281 154.671875 234.335938 147.492188 C 237.359375 132.648438 237.359375 117.347656 234.335938 102.507812 C 231.410156 88.230469 225.703125 74.671875 217.539062 62.601562 C 205.425781 44.660156 188.371094 30.613281 168.441406 22.167969 C 161.691406 19.3125 154.671875 17.136719 147.492188 15.664062 C 140.089844 14.152344 132.554688 13.390625 125 13.390625 Z M 125 13.390625 "/>
<path style=" stroke:none;fill-rule:nonzero;fill:url(#linear1);" d="M 220.703125 125 C 220.703125 177.855469 177.855469 220.703125 125 220.703125 C 72.144531 220.703125 29.296875 177.855469 29.296875 125 C 29.296875 72.144531 72.144531 29.296875 125 29.296875 C 177.855469 29.296875 220.703125 72.144531 220.703125 125 Z M 220.703125 125 "/>
<path style=" stroke:none;fill-rule:nonzero;fill:rgb(0%,81.960785%,100%);fill-opacity:1;" d="M 93.472656 101.207031 C 92.695312 100.265625 91.535156 99.726562 90.316406 99.742188 L 64.753906 99.742188 C 64.546875 99.75 64.347656 99.671875 64.203125 99.523438 C 64.070312 99.402344 63.992188 99.230469 63.988281 99.050781 L 63.988281 81.824219 C 63.992188 81.644531 64.070312 81.472656 64.203125 81.351562 C 64.347656 81.207031 64.546875 81.128906 64.753906 81.136719 L 91.765625 81.136719 C 98.582031 81.136719 104.460938 83.921875 109.40625 89.492188 L 115.96875 97.5 L 103.1875 113.089844 Z M 140.679688 89.40625 C 145.621094 83.890625 151.53125 81.136719 158.402344 81.136719 L 185.332031 81.136719 C 185.515625 81.121094 185.699219 81.183594 185.839844 81.308594 C 185.964844 81.449219 186.023438 81.636719 186.011719 81.824219 L 186.011719 99.050781 C 186.011719 99.222656 185.949219 99.390625 185.839844 99.523438 C 185.714844 99.671875 185.523438 99.753906 185.332031 99.742188 L 159.765625 99.742188 C 158.546875 99.726562 157.386719 100.265625 156.613281 101.207031 L 137.78125 124.117188 L 156.699219 147.199219 C 157.472656 148.082031 158.59375 148.585938 159.765625 148.578125 L 185.328125 148.578125 C 185.523438 148.566406 185.714844 148.644531 185.839844 148.792969 C 185.957031 148.957031 186.019531 149.152344 186.011719 149.351562 L 186.011719 166.578125 C 186.007812 166.75 185.949219 166.917969 185.839844 167.050781 C 185.714844 167.199219 185.523438 167.28125 185.328125 167.269531 L 158.402344 167.269531 C 151.53125 167.269531 145.648438 164.484375 140.765625 158.914062 L 125.085938 139.792969 L 109.40625 158.914062 C 104.464844 164.484375 98.554688 167.269531 91.683594 167.269531 L 64.753906 167.269531 C 64.558594 167.28125 64.371094 167.203125 64.242188 167.050781 C 64.125 166.890625 64.0625 166.691406 64.074219 166.492188 L 64.074219 149.265625 C 64.074219 149.089844 64.132812 148.925781 64.242188 148.792969 C 64.371094 148.640625 64.558594 148.5625 64.753906 148.574219 L 90.316406 148.574219 C 91.53125 148.566406 92.679688 148.03125 93.472656 147.109375 L 111.960938 124.542969 Z M 140.679688 89.40625 "/>
</g>
</svg>
